packages/icons/src/circle-cross.svg

<svg width="24" height="24" viewBox="0 0 24 24" fill="none" xmlns="http://www.w3.org/2000/svg">
<path fill-rule="evenodd" clip-rule="evenodd" d="M12 2C17.5228 2 22 6.47715 22 12C22 17.5228 17.5228 22 12 22C6.47715 22 2 17.5228 2 12C2 6.47715 6.47715 2 12 2ZM12 4C7.58172 4 4 7.58172 4 12C4 16.4183 7.58172 20 12 20C16.4183 20 20 16.4183 20 12C20 7.58172 16.4183 4 12 4ZM14.1213 8.46447L15.5355 9.87868L13.414 12L15.5355 14.1213L14.1213 15.5355L12 13.414L9.87868 15.5355L8.46447 14.1213L10.586 12L8.46447 9.87868L9.87868 8.46447L12 10.586L14.1213 8.46447Z" fill="black"/>
</svg>

<svg xmlns="http://www.w3.org/2000/svg" width="24" height="24" fill="none" viewBox="0 0 24 24">
  <path fill="#000" fill-rule="evenodd" d="M12 2c5.523 0 10 4.477 10 10s-4.477 10-10 10S2 17.523 2 12 6.477 2 12 2Zm0 2a8 8 0 1 0 0 16 8 8 0 0 0 0-16Zm2.121 4.464 1.415 1.415L13.414 12l2.122 2.121-1.415 1.415L12 13.414l-2.121 2.122-1.415-1.415L10.586 12 8.464 9.879 9.88 8.464 12 10.586l2.121-2.122Z" clip-rule="evenodd"/>
</svg>
